X: 90
T: LORD ALEXANDER GORDON'S -- STRATHSPEY
B: Ryan's Mammoth Collection of Fiddle Tunes
R: strat:hspey
M: C
L: 1/8
Z: Contributed 20080724 by John Chambers jc:jc.tzo.net
K: A
uc \
| vA, uA2 (vc/d/) ue>vA uTc2 | (ve>.e) (f/e/d/c/) (dc) \
| vA, uA2 (c/d/) e>A(c>.e) | ((3fga) ((3efd) (c<A)(A>c) |
| vA, uA2 (vc/d/) ue>vA uTc2 | (e>.e) (f/e/d/c/) (dc) \
| vA,  A2 (c/d/) e>A(c>.e) | ((3fga) ((3efd) (c<A)A |]
uE \
| vC uE2 (vF/G/) uA>vE uA2 | (vFc) (Td>c)(TB>A) \
| (3cde (3fga (Tf>e) (Td>c) | (3Bcd (3efd (c<A) A2 |
| vC uE2 (vF/G/) uA>vE uA2 | (vFc) (Td>c)(TB>A) \
| (3cde (3fga (3efd (3cBA | (3Bcd (3efd (c<A)A |]
